src/assets/icons/adwaita/mimetypes/application-x-iso9600-appimage.svg

<?xml version="1.0" encoding="UTF-8" standalone="no"?>
<svg
   height="128px"
   viewBox="0 0 128 128"
   width="128px"
   version="1.1"
   id="application_x_iso9600_appimage_svg35"
   xml:space="preserve"
   xmlns:xlink="http://www.w3.org/1999/xlink"
   xmlns="http://www.w3.org/2000/svg"
   xmlns:svg="http://www.w3.org/2000/svg"><defs
     id="application_x_iso9600_appimage_defs39"><linearGradient
       xlink:href="#application_x_iso9600_appimage_linearGradient20"
       id="application_x_iso9600_appimage_linearGradient22"
       x1="17"
       y1="39"
       x2="111"
       y2="39"
       gradientUnits="userSpaceOnUse" /><linearGradient
       id="application_x_iso9600_appimage_linearGradient20"><stop
         style="stop-color:#6998b4;stop-opacity:1;"
         offset="0"
         id="application_x_iso9600_appimage_stop21" /><stop
         style="stop-color:#93b5c8;stop-opacity:1;"
         offset="0.05"
         id="application_x_iso9600_appimage_stop23" /><stop
         style="stop-color:#77a2bb;stop-opacity:1;"
         offset="0.09"
         id="application_x_iso9600_appimage_stop24" /><stop
         style="stop-color:#77a2bb;stop-opacity:1;"
         offset="0.91000003"
         id="application_x_iso9600_appimage_stop25" /><stop
         style="stop-color:#93b5c8;stop-opacity:1;"
         offset="0.94999999"
         id="application_x_iso9600_appimage_stop26" /><stop
         style="stop-color:#6998b4;stop-opacity:1;"
         offset="1"
         id="application_x_iso9600_appimage_stop22" /></linearGradient><linearGradient
       xlink:href="#application_x_iso9600_appimage_linearGradient15"
       id="application_x_iso9600_appimage_linearGradient16"
       x1="20"
       y1="64"
       x2="108"
       y2="64"
       gradientUnits="userSpaceOnUse" /><linearGradient
       id="application_x_iso9600_appimage_linearGradient15"><stop
         style="stop-color:#4a7892;stop-opacity:1;"
         offset="0"
         id="application_x_iso9600_appimage_stop15" /><stop
         style="stop-color:#93b5c8;stop-opacity:1;"
         offset="0.05"
         id="application_x_iso9600_appimage_stop17" /><stop
         style="stop-color:#6091af;stop-opacity:1;"
         offset="0.09"
         id="application_x_iso9600_appimage_stop18" /><stop
         style="stop-color:#6092af;stop-opacity:1;"
         offset="0.91000003"
         id="application_x_iso9600_appimage_stop19" /><stop
         style="stop-color:#93b5c8;stop-opacity:1;"
         offset="0.94999999"
         id="application_x_iso9600_appimage_stop20" /><stop
         style="stop-color:#4a7892;stop-opacity:1;"
         offset="1"
         id="application_x_iso9600_appimage_stop16" /></linearGradient></defs><linearGradient
     id="application_x_iso9600_appimage_a"
     gradientUnits="userSpaceOnUse"
     x1="36"
     x2="60"
     y1="68"
     y2="68"><stop
       offset="0"
       stop-color="#ed336c"
       id="application_x_iso9600_appimage_stop2" /><stop
       offset="1"
       stop-color="#ffa348"
       id="application_x_iso9600_appimage_stop4" /></linearGradient><linearGradient
     id="application_x_iso9600_appimage_b"
     gradientTransform="matrix(0 1 -1 0 144 -32)"
     gradientUnits="userSpaceOnUse"
     x1="72"
     x2="96"
     y1="68"
     y2="68"><stop
       offset="0"
       stop-color="#404ce6"
       id="application_x_iso9600_appimage_stop7" /><stop
       offset="1"
       stop-color="#c061cb"
       id="application_x_iso9600_appimage_stop9" /></linearGradient><linearGradient
     id="application_x_iso9600_appimage_c"
     gradientUnits="userSpaceOnUse"
     x1="68.84919"
     x2="95.257637"
     y1="84"
     y2="84"><stop
       offset="0"
       stop-color="#33d1c6"
       id="application_x_iso9600_appimage_stop12" /><stop
       offset="1"
       stop-color="#1c25d8"
       id="application_x_iso9600_appimage_stop14" /></linearGradient><path
     id="application_x_iso9600_appimage_path2"
     d="M 27.9961,8 C 23.56467,8 20,11.566406 20,16 v 96 c 0,4.43359 3.56467,8 7.9961,8 H 99.960955 C 104.39238,120 108,116.41016 108,111.97656 V 37.921875 37.917969 15.921875 C 108,11.488281 104.39238,8 99.960955,8 L 77.975597,8.0039062 77.971693,8 Z"
     style="fill:url(#application_x_iso9600_appimage_linearGradient16);fill-opacity:1;stroke:none;stroke-width:0.999756" /><path
     d="m 25.54331,16 h 76.91338 C 107.17634,16 111,19.16936 111,23.078108 V 54.921892 C 111,58.830641 107.17634,62 102.45669,62 H 25.54331 C 20.82366,62 17,58.830641 17,54.921892 V 23.078108 C 17,19.16936 20.82366,16 25.54331,16 Z m 0,0"
     fill="#cdab8f"
     id="application_x_iso9600_appimage_path16"
     style="fill:url(#application_x_iso9600_appimage_linearGradient22);fill-opacity:1;stroke-width:0.995887" /><path
     d="m 25.54331,8 h 76.91338 C 107.17634,8 111,11.16936 111,15.078108 V 46.921892 C 111,50.830641 107.17634,54 102.45669,54 H 25.54331 C 20.82366,54 17,50.830641 17,46.921892 V 15.078108 C 17,11.16936 20.82366,8 25.54331,8 Z m 0,0"
     fill="#cdab8f"
     id="application_x_iso9600_appimage_path14"
     style="fill:#92b4c9;fill-opacity:1;stroke-width:0.995887" /><path
     id="application_x_iso9600_appimage_path1204-9"
     style="fill:#ffffff;fill-opacity:1;stroke:none;stroke-width:0.125;stroke-linecap:butt;stroke-linejoin:miter;stroke-miterlimit:4;stroke-dasharray:none;stroke-dashoffset:0;stroke-opacity:1;marker:none;paint-order:normal"
     d="m 60,21 v 4 h 4 v -2 h 4 v -2 h -4 z m 4,4 v 2 h -4 v 4 h 4 v -2 h 4 v -4 z m 0,6 v 2 h -4 v 4 h 4 v -2 h 4 v -4 z m 0,6 v 2 h -4 v 4 h 4 v -2 h 4 v -2 -2 z m 0,6 v 2 h -4 v 4 h 4 v -2 h 4 v -4 z m 0,6 v 2 h -4 v 4 h 4 v -2 h 4 v -4 z m 0,6 v 2 h -4 v 4 h 4 v -2 h 4 v -2 -2 z m 0,6 v 1 h 4 v -1 z" /><path
     id="application_x_iso9600_appimage_path1211-4"
     d="m 60,11.999996 c -2.216,0 -4,1.784001 -4,4 v 10 c 0,2.215999 1.784,4 4,4 v 7.999999 c 0,1.108 0.892,2 2,2 h 4.000001 c 1.108,0 2,-0.892 2,-2 v -7.999999 c 2.216,0 4,-1.784001 4,-4 v -10 c 0,-2.215999 -1.784,-4 -4,-4 z m 2,21.999999 h 4.000001 v 4 H 62 Z"
     style="display:inline;opacity:0.1;fill:#000000;fill-opacity:1;stroke:none;stroke-width:0.5;stroke-linecap:round;stroke-linejoin:round;stroke-miterlimit:4;stroke-dasharray:none;stroke-dashoffset:0;stroke-opacity:1;enable-background:new" /><path
     id="application_x_iso9600_appimage_path41396-8"
     style="fill:#46728b;fill-opacity:1;stroke:none;stroke-width:0.125;stroke-linecap:butt;stroke-linejoin:miter;stroke-miterlimit:4;stroke-dasharray:none;stroke-dashoffset:0;stroke-opacity:1;marker:none;paint-order:normal"
     d="m 60,23 v 4 h 4 v -2 h 4 v -2 h -4 z m 4,4 v 2 h -4 v 4 h 4 v -2 h 4 v -4 z m 0,6 v 2 h -4 v 4 h 4 v -2 h 4 v -4 z m 0,6 v 2 h -4 v 4 h 4 v -2 h 4 v -2 -2 z m 0,6 v 2 h -4 v 4 h 4 v -2 h 4 v -4 z m 0,6 v 2 h -4 v 4 h 4 v -2 h 4 v -4 z m 0,6 v 2 h -4 v 3 h 4 v -1 h 4 v -2 -2 z" /><path
     style="vector-effect:none;fill:#355669;fill-opacity:1;stroke:none;stroke-width:0.5;stroke-linecap:round;stroke-linejoin:round;stroke-miterlimit:4;stroke-dasharray:none;stroke-dashoffset:0;stroke-opacity:1"
     d="m 62,17.999998 c -1.108,0 -2,0.892001 -2,2 v 15.999999 c 0,1.108001 0.892,2 2,2 h 4.000001 c 1.108,0 2,-0.891999 2,-2 V 19.999998 c 0,-1.107999 -0.892,-2 -2,-2 z m 0,14 h 4.000001 v 3.999999 H 62 Z"
     id="application_x_iso9600_appimage_path1214-1" /><rect
     ry="2.5026016"
     rx="2.5026016"
     y="9.9999971"
     x="56"
     height="18"
     width="16"
     id="application_x_iso9600_appimage_rect1216-2"
     style="display:inline;vector-effect:none;fill:#355669;fill-opacity:1;stroke:none;stroke-width:0.5;stroke-linecap:round;stroke-linejoin:round;stroke-miterlimit:4;stroke-dasharray:none;stroke-dashoffset:0;stroke-opacity:1;enable-background:new" /><rect
     ry="2.9445434"
     rx="2.9445434"
     y="7.9999995"
     x="56"
     height="18"
     width="16"
     id="application_x_iso9600_appimage_rect1218-9"
     style="display:inline;vector-effect:none;fill:#46728b;fill-opacity:1;stroke:none;stroke-width:2;stroke-linecap:butt;stroke-linejoin:round;stroke-miterlimit:4;stroke-dasharray:none;stroke-dashoffset:0;stroke-opacity:1;enable-background:new" /><path
     id="application_x_iso9600_appimage_path1220-3"
     d="m 62,13.999999 c -1.108,0 -2,0.891999 -2,1.999999 v 18 c 0,1.108 0.892,1.999999 2,1.999999 h 4.000001 c 1.108,0 2,-0.891999 2,-1.999999 v -18 c 0,-1.108 -0.892,-1.999999 -2,-1.999999 z m 0,15.999999 h 4.000001 v 4 H 62 Z"
     style="fill:#ffffff;fill-opacity:1;stroke:none;stroke-width:0.5;stroke-linecap:round;stroke-linejoin:round;stroke-miterlimit:4;stroke-dasharray:none;stroke-dashoffset:0;stroke-opacity:1" /><rect
     transform="scale(1,-1)"
     ry="1.9999996"
     rx="1.9999996"
     y="-19.999998"
     x="62"
     height="9.999999"
     width="3.9999993"
     id="application_x_iso9600_appimage_rect1222-9"
     style="display:inline;fill:#355669;fill-opacity:1;stroke:none;stroke-width:0.125;stroke-linecap:butt;stroke-linejoin:miter;stroke-miterlimit:4;stroke-dasharray:none;stroke-dashoffset:0;stroke-opacity:1;marker:none;paint-order:normal;enable-background:new" /><rect
     style="display:inline;fill:#46728b;fill-opacity:1;stroke:none;stroke-width:0.125;stroke-linecap:butt;stroke-linejoin:miter;stroke-miterlimit:4;stroke-dasharray:none;stroke-dashoffset:0;stroke-opacity:1;marker:none;paint-order:normal;enable-background:new"
     id="application_x_iso9600_appimage_rect1224-0"
     width="3.9999993"
     height="8"
     x="62"
     y="-18"
     rx="1.9999996"
     ry="1.9999996"
     transform="scale(1,-1)" /><rect
     style="fill:#0b0705;fill-opacity:0.2;stroke:none"
     id="application_x_iso9600_appimage_rect1"
     width="8"
     height="8"
     x="60"
     y="54" /><path
     id="application_x_iso9600_appimage_path6"
     style="display:inline;overflow:visible;visibility:visible;fill:#ffffff;fill-opacity:1;fill-rule:nonzero;stroke:none;stroke-width:1.50269;marker:none;enable-background:accumulate"
     d="M 62.359375 89 C 62.100037 89 61.9375 89.442383 61.9375 89.984375 L 61.9375 93.40625 C 60.893425 93.643994 59.910181 94.069804 59.03125 94.625 L 56.59375 92.1875 C 56.210503 91.804254 55.792753 91.62912 55.609375 91.8125 L 53.3125 94.109375 C 53.129119 94.292756 53.3042 94.710504 53.6875 95.09375 L 56.125 97.53125 C 55.569805 98.41018 55.143996 99.393423 54.90625 100.4375 L 51.484375 100.4375 C 50.942383 100.4375 50.5 100.60003 50.5 100.85938 L 50.5 104.14062 C 50.5 104.39996 50.942383 104.5625 51.484375 104.5625 L 54.90625 104.5625 C 55.143996 105.60657 55.569805 106.58982 56.125 107.46875 L 53.6875 109.90625 C 53.304255 110.2895 53.129119 110.70725 53.3125 110.89062 L 55.609375 113.1875 C 55.792753 113.37088 56.210503 113.1955 56.59375 112.8125 L 59.03125 110.375 C 59.910181 110.93019 60.893425 111.356 61.9375 111.59375 L 61.9375 115.01562 C 61.9375 115.55761 62.100037 116 62.359375 116 L 65.640625 116 C 65.899965 116 66.0625 115.55762 66.0625 115.01562 L 66.0625 111.59375 C 67.106575 111.356 68.089819 110.93019 68.96875 110.375 L 71.40625 112.8125 C 71.789497 113.19574 72.207246 113.37088 72.390625 113.1875 L 74.6875 110.89062 C 74.870881 110.70725 74.6958 110.2895 74.3125 109.90625 L 71.875 107.46875 C 72.430194 106.58982 72.856005 105.60657 73.09375 104.5625 L 76.515625 104.5625 C 77.057618 104.5625 77.5 104.39997 77.5 104.14062 L 77.5 100.85938 C 77.5 100.60004 77.057618 100.4375 76.515625 100.4375 L 73.09375 100.4375 C 72.856005 99.393423 72.430194 98.41018 71.875 97.53125 L 74.3125 95.09375 C 74.695745 94.710504 74.870881 94.292754 74.6875 94.109375 L 72.390625 91.8125 C 72.207246 91.629118 71.789497 91.8042 71.40625 92.1875 L 68.96875 94.625 C 68.089819 94.069804 67.106575 93.643994 66.0625 93.40625 L 66.0625 89.984375 C 66.0625 89.442383 65.899965 89 65.640625 89 L 62.359375 89 z M 64 98.328125 C 66.292924 98.328125 68.171875 100.20707 68.171875 102.5 C 68.171875 104.79292 66.292924 106.67187 64 106.67188 C 61.707079 106.67188 59.828125 104.79292 59.828125 102.5 C 59.828125 100.20707 61.707079 98.328125 64 98.328125 z " /><path
     style="display:inline;overflow:visible;visibility:visible;fill:#ffffff;fill-opacity:1;fill-rule:nonzero;stroke:none;stroke-width:1.50269;marker:none;enable-background:accumulate"
     d="m 59.5,67.999998 v 9 h -4.78125 l 9.28125,10.5 9.28125,-10.5 H 68.5 v -9 z"
     id="application_x_iso9600_appimage_path2317" /></svg>

<svg xmlns="http://www.w3.org/2000/svg" xmlns:xlink="http://www.w3.org/1999/xlink" xml:space="preserve" width="128" height="128" viewBox="0 0 128 128"><defs><linearGradient xlink:href="#application_x_iso9600_appimage_a" id="application_x_iso9600_appimage_d" x1="17" x2="111" y1="39" y2="39" gradientUnits="userSpaceOnUse"/><linearGradient id="application_x_iso9600_appimage_a"><stop offset="0" style="stop-color:#6998b4;stop-opacity:1"/><stop offset=".05" style="stop-color:#93b5c8;stop-opacity:1"/><stop offset=".09" style="stop-color:#77a2bb;stop-opacity:1"/><stop offset=".91" style="stop-color:#77a2bb;stop-opacity:1"/><stop offset=".95" style="stop-color:#93b5c8;stop-opacity:1"/><stop offset="1" style="stop-color:#6998b4;stop-opacity:1"/></linearGradient><linearGradient xlink:href="#application_x_iso9600_appimage_b" id="application_x_iso9600_appimage_c" x1="20" x2="108" y1="64" y2="64" gradientUnits="userSpaceOnUse"/><linearGradient id="application_x_iso9600_appimage_b"><stop offset="0" style="stop-color:#4a7892;stop-opacity:1"/><stop offset=".05" style="stop-color:#93b5c8;stop-opacity:1"/><stop offset=".09" style="stop-color:#6091af;stop-opacity:1"/><stop offset=".91" style="stop-color:#6092af;stop-opacity:1"/><stop offset=".95" style="stop-color:#93b5c8;stop-opacity:1"/><stop offset="1" style="stop-color:#4a7892;stop-opacity:1"/></linearGradient></defs><path d="M27.996 8A7.98 7.98 0 0 0 20 16v96c0 4.434 3.565 8 7.996 8h71.965c4.431 0 8.039-3.59 8.039-8.023V15.922C108 11.488 104.392 8 99.961 8l-21.985.004L77.972 8Z" style="fill:url(#application_x_iso9600_appimage_c);fill-opacity:1;stroke:none;stroke-width:.999756"/><path fill="#cdab8f" d="M25.543 16h76.914c4.72 0 8.543 3.17 8.543 7.078v31.844c0 3.909-3.824 7.078-8.543 7.078H25.543C20.823 62 17 58.83 17 54.922V23.078C17 19.17 20.824 16 25.543 16m0 0" style="fill:url(#application_x_iso9600_appimage_d);fill-opacity:1;stroke-width:.995887"/><path fill="#cdab8f" d="M25.543 8h76.914c4.72 0 8.543 3.17 8.543 7.078v31.844c0 3.909-3.824 7.078-8.543 7.078H25.543C20.823 54 17 50.83 17 46.922V15.078C17 11.17 20.824 8 25.543 8m0 0" style="fill:#92b4c9;fill-opacity:1;stroke-width:.995887"/><path d="M60 21v4h4v-2h4v-2h-4zm4 4v2h-4v4h4v-2h4v-4zm0 6v2h-4v4h4v-2h4v-4zm0 6v2h-4v4h4v-2h4v-4zm0 6v2h-4v4h4v-2h4v-4zm0 6v2h-4v4h4v-2h4v-4zm0 6v2h-4v4h4v-2h4v-4zm0 6v1h4v-1z" style="fill:#fff;fill-opacity:1;stroke:none;stroke-width:.125;stroke-linecap:butt;stroke-linejoin:miter;stroke-miterlimit:4;stroke-dasharray:none;stroke-dashoffset:0;stroke-opacity:1;marker:none;paint-order:normal"/><path d="M60 12c-2.216 0-4 1.784-4 4v10c0 2.216 1.784 4 4 4v8c0 1.108.892 2 2 2h4c1.108 0 2-.892 2-2v-8c2.216 0 4-1.784 4-4V16c0-2.216-1.784-4-4-4zm2 22h4v4h-4Z" style="display:inline;opacity:.1;fill:#000;fill-opacity:1;stroke:none;stroke-width:.5;stroke-linecap:round;stroke-linejoin:round;stroke-miterlimit:4;stroke-dasharray:none;stroke-dashoffset:0;stroke-opacity:1"/><path d="M60 23v4h4v-2h4v-2h-4zm4 4v2h-4v4h4v-2h4v-4zm0 6v2h-4v4h4v-2h4v-4zm0 6v2h-4v4h4v-2h4v-4zm0 6v2h-4v4h4v-2h4v-4zm0 6v2h-4v4h4v-2h4v-4zm0 6v2h-4v3h4v-1h4v-4z" style="fill:#46728b;fill-opacity:1;stroke:none;stroke-width:.125;stroke-linecap:butt;stroke-linejoin:miter;stroke-miterlimit:4;stroke-dasharray:none;stroke-dashoffset:0;stroke-opacity:1;marker:none;paint-order:normal"/><path d="M62 18c-1.108 0-2 .892-2 2v16c0 1.108.892 2 2 2h4c1.108 0 2-.892 2-2V20c0-1.108-.892-2-2-2zm0 14h4v4h-4Z" style="vector-effect:none;fill:#355669;fill-opacity:1;stroke:none;stroke-width:.5;stroke-linecap:round;stroke-linejoin:round;stroke-miterlimit:4;stroke-dasharray:none;stroke-dashoffset:0;stroke-opacity:1"/><rect width="16" height="18" x="56" y="10" rx="2.503" ry="2.503" style="display:inline;vector-effect:none;fill:#355669;fill-opacity:1;stroke:none;stroke-width:.5;stroke-linecap:round;stroke-linejoin:round;stroke-miterlimit:4;stroke-dasharray:none;stroke-dashoffset:0;stroke-opacity:1"/><rect width="16" height="18" x="56" y="8" rx="2.945" ry="2.945" style="display:inline;vector-effect:none;fill:#46728b;fill-opacity:1;stroke:none;stroke-width:2;stroke-linecap:butt;stroke-linejoin:round;stroke-miterlimit:4;stroke-dasharray:none;stroke-dashoffset:0;stroke-opacity:1"/><path d="M62 14c-1.108 0-2 .892-2 2v18c0 1.108.892 2 2 2h4c1.108 0 2-.892 2-2V16c0-1.108-.892-2-2-2zm0 16h4v4h-4Z" style="fill:#fff;fill-opacity:1;stroke:none;stroke-width:.5;stroke-linecap:round;stroke-linejoin:round;stroke-miterlimit:4;stroke-dasharray:none;stroke-dashoffset:0;stroke-opacity:1"/><rect width="4" height="10" x="62" y="-20" rx="2" ry="2" style="display:inline;fill:#355669;fill-opacity:1;stroke:none;stroke-width:.125;stroke-linecap:butt;stroke-linejoin:miter;stroke-miterlimit:4;stroke-dasharray:none;stroke-dashoffset:0;stroke-opacity:1;marker:none;paint-order:normal" transform="scale(1 -1)"/><rect width="4" height="8" x="62" y="-18" rx="2" ry="2" style="display:inline;fill:#46728b;fill-opacity:1;stroke:none;stroke-width:.125;stroke-linecap:butt;stroke-linejoin:miter;stroke-miterlimit:4;stroke-dasharray:none;stroke-dashoffset:0;stroke-opacity:1;marker:none;paint-order:normal" transform="scale(1 -1)"/><path d="M60 54h8v8h-8z" style="fill:#0b0705;fill-opacity:.2;stroke:none"/><path d="M62.36 89c-.26 0-.422.442-.422.984v3.422a9.4 9.4 0 0 0-2.907 1.219l-2.437-2.437c-.383-.384-.801-.559-.985-.376l-2.297 2.297c-.183.184-.008.602.376.985l2.437 2.437a9.4 9.4 0 0 0-1.219 2.906h-3.422c-.542 0-.984.163-.984.422v3.282c0 .259.442.421.984.421h3.422a9.4 9.4 0 0 0 1.219 2.907l-2.437 2.437c-.384.383-.559.801-.376.985l2.297 2.296c.184.184.602.008.985-.374l2.437-2.438a9.4 9.4 0 0 0 2.907 1.219v3.422c0 .542.162.984.421.984h3.282c.259 0 .421-.442.421-.984v-3.422a9.4 9.4 0 0 0 2.907-1.219l2.437 2.438c.383.383.801.558.985.374l2.296-2.296c.184-.184.009-.602-.374-.985l-2.438-2.437a9.4 9.4 0 0 0 1.219-2.906h3.422c.542 0 .984-.163.984-.422v-3.282c0-.259-.442-.421-.984-.421h-3.422a9.4 9.4 0 0 0-1.219-2.907l2.438-2.437c.383-.383.558-.801.374-.985l-2.296-2.296c-.184-.184-.602-.009-.985.374l-2.437 2.438a9.4 9.4 0 0 0-2.906-1.219v-3.422c0-.542-.163-.984-.422-.984zM64 98.328a4.186 4.186 0 0 1 4.172 4.172A4.186 4.186 0 0 1 64 106.672a4.186 4.186 0 0 1-4.172-4.172A4.186 4.186 0 0 1 64 98.328M59.5 68v9h-4.781L64 87.5 73.281 77H68.5v-9z" style="display:inline;overflow:visible;visibility:visible;fill:#fff;fill-opacity:1;fill-rule:nonzero;stroke:none;stroke-width:1.50269;marker:none"/></svg>
